status/24/battery-empty-symbolic.svg

<?xml version="1.0" encoding="UTF-8" standalone="no"?>
<svg
   xmlns:dc="http://purl.org/dc/elements/1.1/"
   xmlns:cc="http://creativecommons.org/ns#"
   xmlns:rdf="http://www.w3.org/1999/02/22-rdf-syntax-ns#"
   xmlns:svg="http://www.w3.org/2000/svg"
   xmlns="http://www.w3.org/2000/svg"
   height="24"
   width="24"
   version="1.1"
   id="svg8">
  <metadata
     id="metadata14">
    <rdf:RDF>
      <cc:Work
         rdf:about="">
        <dc:format>image/svg+xml</dc:format>
        <dc:type
           rdf:resource="http://purl.org/dc/dcmitype/StillImage" />
        <dc:title></dc:title>
      </cc:Work>
    </rdf:RDF>
  </metadata>
  <defs
     id="defs12" />
  <path
     id="rect851"
     style="font-variation-settings:normal;opacity:1;vector-effect:none;fill:#c6262e;fill-opacity:1;stroke-width:0.999999;stroke-linecap:butt;stroke-linejoin:miter;stroke-miterlimit:4;stroke-dasharray:none;stroke-dashoffset:0;stroke-opacity:0.5;stop-color:#000000;stop-opacity:1"
     d="m 2.9995937,6 c -0.554,0 -1,2.453 -1,5.5 0,3.047 0.446,5.5 1,5.5 H 13.673828 l 0.566406,-1 H 3.6324062 C 3.2815783,16 2.9995937,13.993 2.9995937,11.5 2.9995937,9.007 3.2815783,7 3.6324062,7 H 20.367188 C 20.718015,7 21,9.007 21,11.5 c 0,1.932285 -0.170595,3.559101 -0.410156,4.199219 l 0.642578,1.134765 C 21.515278,16.450352 21.747309,15.395621 21.878906,14 h 1.619141 C 23.776155,14 24,12.885 24,11.5 24,10.115 23.776155,9 23.498047,9 H 21.878906 C 21.712678,7.2371104 21.387343,6 21,6 Z m 18.9457183,4 h 0.904297 C 22.932709,10 23,10.669 23,11.5 23,12.331 22.932709,13 22.849609,13 H 21.945312 C 21.970781,12.513456 22,12.032809 22,11.5 22,10.967191 21.970781,10.486544 21.945312,10 Z" />
  <path
     class="error"
     id="rect851-3-7-3"
     style="font-variation-settings:normal;opacity:0.25;vector-effect:none;fill:#c6262e;fill-opacity:1;stroke-width:0.999999;stroke-linecap:butt;stroke-linejoin:miter;stroke-miterlimit:4;stroke-dasharray:none;stroke-dashoffset:0;stroke-opacity:0.5;stop-color:#000000"
     d="m 4.3359687,8 c -0.1858151,0 -0.3359375,1.561 -0.3359375,3.5 0,1.939 0.1501224,3.5 0.3359375,3.5 H 14.806641 L 16.25,12.455078 c 6.48e-4,-0.0013 0.0013,-0.0026 0.002,-0.0039 0.245728,-0.426937 0.688694,-0.696749 1.179688,-0.720703 h 0.002 c 0.539741,-0.02493 1.047338,0.251918 1.316406,0.720703 6.57e-4,0.002 0.0013,0.0039 0.002,0.0059 l 1.091797,1.925781 C 19.935623,13.759488 20,12.73211 20,11.5 20,9.561 19.849878,8 19.664062,8 Z" />
  <path
     class="warning"
     color="#000000"
     d="m 17.480083,12.729 a 0.44,0.44 0 0 0 -0.36,0.22 l -3.061,5.397 a 0.437,0.437 0 0 0 0.379,0.654 h 6.125 a 0.437,0.437 0 0 0 0.379,-0.654 l -3.06,-5.397 a 0.439,0.439 0 0 0 -0.401,-0.22 z m -0.48,1.271 h 1 v 2 h -1 z m 0,3 h 1 v 1 h -1 z"
     fill="#f9c440"
     fill-rule="evenodd"
     font-family="sans-serif"
     font-weight="400"
     overflow="visible"
     style="line-height:normal;text-indent:0;text-align:start;text-decoration:none;text-decoration-line:none;text-decoration-style:solid;text-decoration-color:#000000;text-transform:none;isolation:auto;mix-blend-mode:normal"
     white-space="normal"
     id="path4" />
</svg>

<svg
        xmlns='http://www.w3.org/2000/svg'
        xmlns:svg='http://www.w3.org/2000/svg'
        id='svg8'
        width='24'
        height='24'>
  <path
          id='rect851'
          opacity='1'
          fill='url(#gpa:error) #ef2929'
          fill-opacity='1'
          fill-rule='nonzero'
          stroke-opacity='0.5'
          stroke-width='0.999999'
          stroke-linecap='butt'
          stroke-linejoin='miter'
          stroke-miterlimit='4'
          stroke-dasharray='none'
          stroke-dashoffset='0'
          d='M 2.99959 6 C 2.44559 6, 1.99959 8.453, 1.99959 11.5 C 1.99959 14.547, 2.44559 17, 2.99959 17 L 13.6738 17 L 14.2402 16 L 3.63241 16 C 3.28158 16, 2.99959 13.993, 2.99959 11.5 C 2.99959 9.007, 3.28158 7, 3.63241 7 L 20.3672 7 C 20.718 7, 21 9.007, 21 11.5 C 21 13.4323, 20.8294 15.0591, 20.5898 15.6992 L 21.2324 16.834 C 21.5153 16.4504, 21.7473 15.3956, 21.8789 14 L 23.498 14 C 23.7762 14, 24 12.885, 24 11.5 C 24 10.115, 23.7762 9, 23.498 9 L 21.8789 9 C 21.7127 7.23711, 21.3873 6, 21 6 Z M 21.9453 10 L 22.8496 10 C 22.9327 10, 23 10.669, 23 11.5 C 23 12.331, 22.9327 13, 22.8496 13 L 21.9453 13 C 21.9708 12.5135, 22 12.0328, 22 11.5 C 22 10.9672, 21.9708 10.4865, 21.9453 10 Z'
          class="error">
  </path>
  <path
          id='rect851-3-7-3'
          opacity='0.25'
          fill='url(#gpa:error) #ef2929'
          fill-opacity='1'
          fill-rule='nonzero'
          stroke='none'
          stroke-opacity='0.5'
          stroke-width='0.999999'
          stroke-linecap='butt'
          stroke-linejoin='miter'
          stroke-miterlimit='4'
          stroke-dasharray='none'
          stroke-dashoffset='0'
          d='M 4.33597 8 C 4.15015 8, 4.00003 9.561, 4.00003 11.5 C 4.00003 13.439, 4.15015 15, 4.33597 15 L 14.8066 15 L 16.25 12.4551 C 16.2506 12.4538, 16.2513 12.4525, 16.252 12.4512 C 16.4977 12.0242, 16.9407 11.7544, 17.4317 11.7305 L 17.4337 11.7305 C 17.9734 11.7055, 18.481 11.9824, 18.7501 12.4512 C 18.7508 12.4532, 18.7514 12.4551, 18.7521 12.4571 L 19.8439 14.3829 C 19.9356 13.7595, 20 12.7321, 20 11.5 C 20 9.561, 19.8499 8, 19.6641 8 Z'
          class="error">
  </path>
  <path
          id='path4'
          color='rgb(0,0,0)'
          font-family='sans-serif'
          font-weight='400'
          fill='url(#gpa:warning) #f9c440'
          fill-opacity='1'
          fill-rule='evenodd'
          stroke='none'
          overflow='visible'
          d='M 17.4801 12.729 A 0.44 0.44 0 0 0 17.1201 12.949 L 14.0591 18.346 A 0.437 0.437 0 0 0 14.4381 19 L 20.5631 19 A 0.437 0.437 0 0 0 20.9421 18.346 L 17.8821 12.949 A 0.439 0.439 0 0 0 17.4811 12.729 Z M 17.0001 14 L 18.0001 14 L 18.0001 16 L 17.0001 16 Z M 17.0001 17 L 18.0001 17 L 18.0001 18 L 17.0001 18 Z'
          text-decoration=''
          class="warning"
          style='mix-blend-mode: normal; isolation: auto'>
  </path>
</svg>
